gtk-icons/Papirus-GTK/16x16/mimetypes/text-css.svg

<?xml version="1.0" encoding="UTF-8" standalone="no"?>
<svg
   xmlns:dc="http://purl.org/dc/elements/1.1/"
   xmlns:cc="http://creativecommons.org/ns#"
   xmlns:rdf="http://www.w3.org/1999/02/22-rdf-syntax-ns#"
   xmlns:svg="http://www.w3.org/2000/svg"
   xmlns="http://www.w3.org/2000/svg"
   xmlns:sodipodi="http://sodipodi.sourceforge.net/DTD/sodipodi-0.dtd"
   xmlns:inkscape="http://www.inkscape.org/namespaces/inkscape"
   width="16px"
   height="16px"
   viewBox="0 0 16 16"
   version="1.1"
   id="svg2"
   inkscape:version="0.91 r"
   sodipodi:docname="text-css.svg">
  <metadata
     id="metadata17">
    <rdf:RDF>
      <cc:Work
         rdf:about="">
        <dc:format>image/svg+xml</dc:format>
        <dc:type
           rdf:resource="http://purl.org/dc/dcmitype/StillImage" />
      </cc:Work>
    </rdf:RDF>
  </metadata>
  <defs
     id="defs15" />
  <sodipodi:namedview
     pagecolor="#ffffff"
     bordercolor="#666666"
     borderopacity="1"
     objecttolerance="10"
     gridtolerance="10"
     guidetolerance="10"
     inkscape:pageopacity="0"
     inkscape:pageshadow="2"
     inkscape:window-width="1535"
     inkscape:window-height="876"
     id="namedview13"
     showgrid="false"
     inkscape:zoom="14.75"
     inkscape:cx="-4.0338983"
     inkscape:cy="8"
     inkscape:window-x="65"
     inkscape:window-y="24"
     inkscape:window-maximized="1"
     inkscape:current-layer="svg2" />
  <g
     id="surface1"
     transform="matrix(1.2,0,0,1.2,-1.6,-1.1)">
    <path
       style="fill:#ebe8d7;fill-opacity:1;fill-rule:nonzero;stroke:none"
       d="M 3.625,1.75 C 3.277344,1.75 3,2.027344 3,2.375 l 0,11.25 c 0,0.347656 0.277344,0.625 0.625,0.625 l 8.75,0 C 12.722656,14.25 13,13.972656 13,13.625 L 13,5.5 9.5625,5.1875 9.25,1.75 Z m 0,0"
       id="path5"
       inkscape:connector-curvature="0" />
    <path
       style="fill:#f8f8f0;fill-opacity:1;fill-rule:nonzero;stroke:none"
       d="m 9.25,1.75 0,3.125 C 9.25,5.21875 9.53125,5.5 9.875,5.5 L 13,5.5 Z m 0,0"
       id="path7"
       inkscape:connector-curvature="0" />
    <path
       style="fill:#000000;fill-opacity:0.50196078;fill-rule:evenodd;stroke:none"
       d="m 6.441406,7.25 c -0.011718,0 -0.019531,0 -0.03125,0 -0.027344,0.00391 -0.054687,0.00781 -0.082031,0.019531 0,0 -0.195313,0.0625 -0.417969,0.179688 -0.226562,0.121093 -0.5,0.285156 -0.675781,0.570312 C 5.039062,8.335938 5.113281,8.675781 5.175781,8.878906 5.234375,9.082031 5.269531,9.171875 5.214844,9.308594 5.1875,9.371094 5.015625,9.519531 4.832031,9.609375 4.648438,9.699219 4.484375,9.746094 4.484375,9.746094 4.402344,9.765625 4.332031,9.820312 4.292969,9.890625 4.25,9.960938 4.238281,10.046875 4.261719,10.128906 4.222656,10.292969 4.320312,10.457031 4.484375,10.5 c 0,0 0.164063,0.04687 0.347656,0.136719 0.183594,0.09375 0.355469,0.238281 0.382813,0.304687 0.054687,0.136719 0.019531,0.222656 -0.039063,0.425782 -0.0625,0.203124 -0.136719,0.542968 0.058594,0.859374 0.175781,0.285157 0.449219,0.453126 0.675781,0.570313 0.222656,0.117187 0.417969,0.183594 0.417969,0.183594 0.105469,0.03906 0.226563,0.01953 0.3125,-0.05469 0.085937,-0.07422 0.125,-0.191406 0.101563,-0.304687 -0.023438,-0.109375 -0.109376,-0.199219 -0.21875,-0.230469 0,0 -0.148438,-0.05078 -0.324219,-0.144531 -0.179688,-0.09375 -0.367188,-0.238282 -0.433594,-0.34375 -0.078125,-0.125 -0.054687,-0.167969 0.00391,-0.355469 0.054688,-0.1875 0.15625,-0.503906 0.015625,-0.84375 C 5.660156,10.398438 5.410156,10.238281 5.1875,10.125 5.410156,10.007812 5.660156,9.847656 5.785156,9.542969 5.925781,9.203125 5.824219,8.890625 5.769531,8.699219 5.710938,8.511719 5.6875,8.46875 5.765625,8.347656 5.832031,8.238281 6.019531,8.09375 6.199219,8 6.375,7.90625 6.523438,7.855469 6.523438,7.855469 6.667969,7.8125 6.757812,7.667969 6.738281,7.519531 6.71875,7.367188 6.589844,7.253906 6.441406,7.25 Z m 2.867188,0 C 9.15625,7.253906 9.03125,7.367188 9.011719,7.519531 8.992188,7.667969 9.082031,7.8125 9.226562,7.855469 c 0,0 0.148438,0.050781 0.324219,0.144531 0.179688,0.09375 0.367188,0.238281 0.433594,0.347656 0.078125,0.121094 0.054687,0.164063 -0.00391,0.351563 -0.054688,0.191406 -0.15625,0.503906 -0.015625,0.84375 0.125,0.304687 0.375,0.464843 0.597656,0.582031 -0.222656,0.113281 -0.472656,0.273438 -0.597656,0.578125 -0.140625,0.339844 -0.039063,0.65625 0.015625,0.84375 0.058593,0.1875 0.082031,0.230469 0.00391,0.351563 -0.066406,0.109374 -0.253906,0.253906 -0.433594,0.347656 -0.175781,0.09375 -0.324219,0.144531 -0.324219,0.144531 -0.109374,0.03125 -0.195312,0.121094 -0.21875,0.230469 -0.023437,0.113281 0.015626,0.230468 0.101563,0.304687 0.085937,0.07422 0.207031,0.09375 0.3125,0.05469 0,0 0.195313,-0.06641 0.417969,-0.183594 0.226562,-0.117187 0.5,-0.285156 0.675781,-0.570313 0.195313,-0.316406 0.121094,-0.65625 0.05859,-0.859374 -0.05859,-0.203126 -0.09375,-0.289063 -0.03906,-0.425782 0.02735,-0.06641 0.19922,-0.210939 0.382814,-0.304689 C 11.101562,10.546875 11.265625,10.5 11.265625,10.5 c 0.164063,-0.04297 0.261719,-0.207031 0.222656,-0.371094 0.02344,-0.08203 0.01172,-0.167968 -0.03125,-0.238281 -0.03906,-0.070313 -0.109375,-0.125 -0.191406,-0.144531 0,0 -0.164063,-0.046875 -0.347656,-0.136719 C 10.734375,9.519531 10.5625,9.371094 10.535156,9.304688 10.480469,9.171875 10.515625,9.082031 10.574219,8.878906 10.636719,8.675781 10.710938,8.335938 10.515625,8.019531 10.339844,7.734375 10.066406,7.570312 9.839844,7.449219 9.617188,7.332031 9.421875,7.265625 9.421875,7.265625 9.394531,7.257812 9.367188,7.253906 9.339844,7.25 c -0.011719,0 -0.019532,0 -0.03125,0 z M 7.875,8.5 C 7.53125,8.5 7.25,8.78125 7.25,9.125 7.25,9.46875 7.53125,9.75 7.875,9.75 8.21875,9.75 8.5,9.46875 8.5,9.125 8.5,8.78125 8.21875,8.5 7.875,8.5 Z m 0,1.875 c -0.34375,0 -0.625,0.28125 -0.625,0.625 0,0.34375 0.28125,0.625 0.625,0.625 0.222656,0 0.3125,0.625 0.3125,0.625 0,0 0.3125,-1.125 0.3125,-1.25 0,-0.34375 -0.28125,-0.625 -0.625,-0.625 z m 0,0"
       id="path9"
       inkscape:connector-curvature="0" />
    <path
       style="fill:#ffffff;fill-opacity:0.2;fill-rule:nonzero;stroke:none"
       d="M 3.625,1.75 C 3.277344,1.75 3,2.027344 3,2.375 l 0,0.5 C 3,2.527344 3.277344,2.25 3.625,2.25 l 5.625,0 0,-0.5 z m 0,0"
       id="path11"
       inkscape:connector-curvature="0" />
  </g>
</svg>

<?xml version="1.0" encoding="UTF-8" standalone="no"?>
<svg id="svg2" xmlns:rdf="http://www.w3.org/1999/02/22-rdf-syntax-ns#" xmlns="http://www.w3.org/2000/svg" height="16px" width="16px" version="1.1" xmlns:cc="http://creativecommons.org/ns#" xmlns:dc="http://purl.org/dc/elements/1.1/" viewBox="0 0 16 16">
 <metadata id="metadata17">
  <rdf:RDF>
   <cc:Work rdf:about="">
    <dc:format>image/svg+xml</dc:format>
    <dc:type rdf:resource="http://purl.org/dc/dcmitype/StillImage"/>
   </cc:Work>
  </rdf:RDF>
 </metadata>
 <g id="surface1" transform="matrix(1.2,0,0,1.2,-1.6,-1.1)">
  <path id="path5" d="m3.625 1.75c-0.3477 0-0.625 0.2773-0.625 0.625v11.25c0 0.34766 0.27734 0.625 0.625 0.625h8.75c0.348 0 0.625-0.277 0.625-0.625v-8.125l-3.4375-0.3125-0.3125-3.4375z" fill="#ebe8d7"/>
  <path id="path7" d="m9.25 1.75v3.125c0 0.3438 0.2812 0.625 0.625 0.625h3.125z" fill="#f8f8f0"/>
  <path id="path9" d="m6.4414 7.25h-0.03125c-0.027344 0.00391-0.054687 0.00781-0.082031 0.019531 0 0-0.19531 0.0625-0.41797 0.17969-0.22656 0.12109-0.5 0.28516-0.67578 0.57031-0.1953 0.3164-0.1211 0.6563-0.0586 0.8594 0.0586 0.2031 0.0937 0.293 0.039 0.4297-0.0273 0.0625-0.1992 0.2109-0.3828 0.3008-0.1836 0.0898-0.3476 0.1367-0.3476 0.1367-0.0821 0.0195-0.1524 0.0742-0.1914 0.1445-0.043 0.0703-0.0547 0.1564-0.0313 0.2384-0.039 0.164 0.0586 0.328 0.2227 0.371 0 0 0.16406 0.04687 0.34766 0.13672 0.18359 0.09375 0.35547 0.23828 0.38281 0.30469 0.054687 0.13672 0.019531 0.22266-0.039063 0.42578-0.0625 0.20312-0.13672 0.54297 0.058594 0.85937 0.17578 0.28516 0.44922 0.45313 0.67578 0.57031 0.22266 0.11719 0.41797 0.18359 0.41797 0.18359 0.10547 0.03906 0.22656 0.01953 0.3125-0.05469 0.085937-0.07422 0.125-0.19141 0.10156-0.30469-0.023438-0.10938-0.10938-0.19922-0.21875-0.23047 0 0-0.14844-0.05078-0.32422-0.14453-0.17969-0.09375-0.36719-0.23828-0.43359-0.34375-0.078125-0.125-0.054687-0.16797 0.00391-0.35547 0.054688-0.1875 0.15625-0.50391 0.015625-0.84375-0.1251-0.305-0.3751-0.465-0.5978-0.578 0.2227-0.117 0.4727-0.2773 0.5977-0.582 0.1406-0.3399 0.039-0.6524-0.0157-0.8438-0.0586-0.1875-0.082-0.2304-0.0039-0.3515 0.0664-0.1094 0.2539-0.2539 0.4336-0.3477 0.1758-0.0938 0.3242-0.1445 0.3242-0.1445 0.1446-0.043 0.2344-0.1875 0.2149-0.336-0.0195-0.1523-0.1485-0.2656-0.2969-0.2695zm2.8672 0c-0.1524 0.0039-0.2774 0.1172-0.2969 0.2695-0.0195 0.1485 0.0703 0.293 0.2149 0.336 0 0 0.14844 0.050781 0.32422 0.14453 0.17969 0.09375 0.36719 0.23828 0.43359 0.34766 0.078125 0.12109 0.054687 0.16406-0.00391 0.35156-0.054688 0.19141-0.15625 0.50391-0.015625 0.84375 0.125 0.30469 0.375 0.46484 0.59766 0.58203-0.22266 0.11328-0.47266 0.27344-0.59766 0.57812-0.14062 0.33984-0.039063 0.65625 0.015625 0.84375 0.058593 0.1875 0.082031 0.23047 0.00391 0.35156-0.066406 0.10937-0.25391 0.25391-0.43359 0.34766-0.17578 0.09375-0.32422 0.14453-0.32422 0.14453-0.10937 0.03125-0.19531 0.12109-0.21875 0.23047-0.023437 0.11328 0.015626 0.23047 0.10156 0.30469 0.085937 0.07422 0.20703 0.09375 0.3125 0.05469 0 0 0.19531-0.06641 0.41797-0.18359 0.22656-0.11719 0.5-0.28516 0.67578-0.57031 0.19531-0.31641 0.12109-0.65625 0.05859-0.85937-0.05859-0.20313-0.09375-0.28906-0.03906-0.42578 0.02735-0.06641 0.19922-0.21094 0.38281-0.30469 0.184-0.09 0.348-0.137 0.348-0.137 0.16406-0.04297 0.26172-0.20703 0.22266-0.37109 0.02344-0.08203 0.01172-0.16797-0.03125-0.23828-0.03906-0.070313-0.10938-0.125-0.19141-0.14453 0 0-0.16406-0.046875-0.34766-0.13672-0.184-0.0899-0.356-0.2383-0.383-0.3047-0.055-0.1328-0.019-0.2227 0.039-0.4258 0.063-0.2031 0.137-0.543-0.058-0.8594-0.176-0.2851-0.45-0.4492-0.6762-0.5703-0.2226-0.1172-0.4179-0.1836-0.4179-0.1836-0.0274-0.0078-0.0547-0.0117-0.0821-0.0156h-0.03125zm-1.4336 1.25c-0.3438 0-0.625 0.2812-0.625 0.625s0.2812 0.625 0.625 0.625 0.625-0.2812 0.625-0.625-0.2812-0.625-0.625-0.625zm0 1.875c-0.34375 0-0.625 0.28125-0.625 0.625s0.28125 0.625 0.625 0.625c0.22266 0 0.3125 0.625 0.3125 0.625s0.3125-1.125 0.3125-1.25c0-0.34375-0.28125-0.625-0.625-0.625z" fill-opacity=".50196" fill-rule="evenodd"/>
  <path id="path11" d="m3.625 1.75c-0.3477 0-0.625 0.2773-0.625 0.625v0.5c0-0.3477 0.2773-0.625 0.625-0.625h5.625v-0.5z" fill-opacity=".2" fill="#fff"/>
 </g>
</svg>
